(G-CODE GENERATED BY FLATCAM v8.994 - www.flatcam.org - Version Date: 2020/11/7)

(Name: cheap-wled-controller-PasteTop.gtp_iso_combined_cnc)
(Type: G-code from Geometry)
(Units: MM)

(Created on Tuesday, 22 July 2025 at 19:12)

(This preprocessor is the default preprocessor used by FlatCAM.)
(It is made to work with MACH3 compatible motion controllers.)

(TOOL DIAMETER: -0.2 mm)
(Feedrate_XY: 120.0 mm/min)
(Feedrate_Z: 25.0 mm/min)
(Feedrate rapids 1500.0 mm/min)

(Z_Cut: -0.2 mm)
(Z_Move: 2.0 mm)
(Z Start: None mm)
(Z End: 15.0 mm)
(X,Y End: None mm)
(Steps per circle: 64)
(Preprocessor Geometry: default)

(X range:    3.5350 ...   42.3553  mm)
(Y range:    5.3197 ...   47.2150  mm)

(Spindle Speed: 0.0 RPM)
G21
G90
G94

G01 F120.00

M5
G00 Z15.0000
G00 X0.0000 Y0.0000
T1
M6    
(MSG, Change to Tool Dia = -0.2000)
M0
G00 Z15.0000

M03
G01 F120.00
G00 X4.3000 Y9.1975
G01 F25.00
G01 Z-0.2000
G01 F120.00
G01 X4.3000 Y8.9025
G01 X4.3004 Y8.8951
G01 X4.3011 Y8.8903
G01 X4.3039 Y8.8809
G01 X4.3085 Y8.8723
G01 X4.3114 Y8.8684
G01 X4.3147 Y8.8647
G01 X4.3223 Y8.8585
G01 X4.3265 Y8.8560
G01 X4.3355 Y8.8523
G01 X4.3451 Y8.8504
G01 X4.3525 Y8.8500
G01 X5.3725 Y8.8500
G01 X5.3799 Y8.8504
G01 X5.3895 Y8.8523
G01 X5.3985 Y8.8560
G01 X5.4027 Y8.8585
G01 X5.4103 Y8.8647
G01 X5.4165 Y8.8723
G01 X5.4190 Y8.8765
G01 X5.4227 Y8.8855
G01 X5.4246 Y8.8951
G01 X5.4250 Y8.9025
G01 X5.4250 Y9.1975
G01 X5.4246 Y9.2049
G01 X5.4239 Y9.2097
G01 X5.4211 Y9.2191
G01 X5.4165 Y9.2277
G01 X5.4136 Y9.2316
G01 X5.4103 Y9.2353
G01 X5.4027 Y9.2415
G01 X5.3985 Y9.2440
G01 X5.3895 Y9.2477
G01 X5.3799 Y9.2496
G01 X5.3725 Y9.2500
G01 X4.3525 Y9.2500
G01 X4.3451 Y9.2496
G01 X4.3403 Y9.2489
G01 X4.3309 Y9.2461
G01 X4.3223 Y9.2415
G01 X4.3147 Y9.2353
G01 X4.3085 Y9.2277
G01 X4.3039 Y9.2191
G01 X4.3011 Y9.2097
G01 X4.3004 Y9.2049
G01 X4.3000 Y9.1975
G00 Z2.0000
G00 X4.3000 Y10.1475
G01 F25.00
G01 Z-0.2000
G01 F120.00
G01 X4.3000 Y9.8525
G01 X4.3004 Y9.8451
G01 X4.3023 Y9.8355
G01 X4.3039 Y9.8309
G01 X4.3060 Y9.8265
G01 X4.3114 Y9.8184
G01 X4.3147 Y9.8147
G01 X4.3223 Y9.8085
G01 X4.3265 Y9.8060
G01 X4.3355 Y9.8023
G01 X4.3451 Y9.8004
G01 X4.3525 Y9.8000
G01 X5.3725 Y9.8000
G01 X5.3799 Y9.8004
G01 X5.3895 Y9.8023
G01 X5.3985 Y9.8060
G01 X5.4027 Y9.8085
G01 X5.4103 Y9.8147
G01 X5.4165 Y9.8223
G01 X5.4190 Y9.8265
G01 X5.4227 Y9.8355
G01 X5.4246 Y9.8451
G01 X5.4250 Y9.8525
G01 X5.4250 Y10.1475
G01 X5.4246 Y10.1549
G01 X5.4239 Y10.1597
G01 X5.4211 Y10.1691
G01 X5.4165 Y10.1777
G01 X5.4136 Y10.1816
G01 X5.4103 Y10.1853
G01 X5.4027 Y10.1915
G01 X5.3985 Y10.1940
G01 X5.3895 Y10.1977
G01 X5.3799 Y10.1996
G01 X5.3725 Y10.2000
G01 X4.3525 Y10.2000
G01 X4.3451 Y10.1996
G01 X4.3403 Y10.1989
G01 X4.3309 Y10.1961
G01 X4.3223 Y10.1915
G01 X4.3147 Y10.1853
G01 X4.3085 Y10.1777
G01 X4.3039 Y10.1691
G01 X4.3011 Y10.1597
G01 X4.3004 Y10.1549
G01 X4.3000 Y10.1475
G00 Z2.0000
G00 X4.3000 Y11.0975
G01 F25.00
G01 Z-0.2000
G01 F120.00
G01 X4.3000 Y10.8025
G01 X4.3004 Y10.7951
G01 X4.3023 Y10.7855
G01 X4.3039 Y10.7809
G01 X4.3060 Y10.7765
G01 X4.3114 Y10.7684
G01 X4.3147 Y10.7647
G01 X4.3223 Y10.7585
G01 X4.3265 Y10.7560
G01 X4.3355 Y10.7523
G01 X4.3451 Y10.7504
G01 X4.3525 Y10.7500
G01 X5.3725 Y10.7500
G01 X5.3799 Y10.7504
G01 X5.3895 Y10.7523
G01 X5.3985 Y10.7560
G01 X5.4027 Y10.7585
G01 X5.4103 Y10.7647
G01 X5.4165 Y10.7723
G01 X5.4190 Y10.7765
G01 X5.4227 Y10.7855
G01 X5.4246 Y10.7951
G01 X5.4250 Y10.8025
G01 X5.4250 Y11.0975
G01 X5.4246 Y11.1049
G01 X5.4239 Y11.1097
G01 X5.4211 Y11.1191
G01 X5.4165 Y11.1277
G01 X5.4136 Y11.1316
G01 X5.4103 Y11.1353
G01 X5.4027 Y11.1415
G01 X5.3985 Y11.1440
G01 X5.3895 Y11.1477
G01 X5.3799 Y11.1496
G01 X5.3725 Y11.1500
G01 X4.3525 Y11.1500
G01 X4.3451 Y11.1496
G01 X4.3403 Y11.1489
G01 X4.3309 Y11.1461
G01 X4.3223 Y11.1415
G01 X4.3147 Y11.1353
G01 X4.3085 Y11.1277
G01 X4.3039 Y11.1191
G01 X4.3011 Y11.1097
G01 X4.3004 Y11.1049
G01 X4.3000 Y11.0975
G00 Z2.0000
G00 X6.5750 Y11.0975
G01 F25.00
G01 Z-0.2000
G01 F120.00
G01 X6.5750 Y10.8025
G01 X6.5754 Y10.7951
G01 X6.5761 Y10.7903
G01 X6.5789 Y10.7809
G01 X6.5810 Y10.7765
G01 X6.5864 Y10.7684
G01 X6.5897 Y10.7647
G01 X6.5973 Y10.7585
G01 X6.6059 Y10.7539
G01 X6.6105 Y10.7523
G01 X6.6201 Y10.7504
G01 X6.6275 Y10.7500
G01 X7.6475 Y10.7500
G01 X7.6549 Y10.7504
G01 X7.6645 Y10.7523
G01 X7.6735 Y10.7560
G01 X7.6777 Y10.7585
G01 X7.6816 Y10.7614
G01 X7.6886 Y10.7684
G01 X7.6940 Y10.7765
G01 X7.6977 Y10.7855
G01 X7.6996 Y10.7951
G01 X7.7000 Y10.8025
G01 X7.7000 Y11.0975
G01 X7.6996 Y11.1049
G01 X7.6989 Y11.1097
G01 X7.6961 Y11.1191
G01 X7.6940 Y11.1235
G01 X7.6886 Y11.1316
G01 X7.6853 Y11.1353
G01 X7.6777 Y11.1415
G01 X7.6691 Y11.1461
G01 X7.6645 Y11.1477
G01 X7.6549 Y11.1496
G01 X7.6475 Y11.1500
G01 X6.6275 Y11.1500
G01 X6.6201 Y11.1496
G01 X6.6153 Y11.1489
G01 X6.6059 Y11.1461
G01 X6.5973 Y11.1415
G01 X6.5897 Y11.1353
G01 X6.5835 Y11.1277
G01 X6.5789 Y11.1191
G01 X6.5761 Y11.1097
G01 X6.5754 Y11.1049
G01 X6.5750 Y11.0975
G00 Z2.0000
G00 X6.5750 Y10.1475
G01 F25.00
G01 Z-0.2000
G01 F120.00
G01 X6.5750 Y9.8525
G01 X6.5754 Y9.8451
G01 X6.5761 Y9.8403
G01 X6.5789 Y9.8309
G01 X6.5810 Y9.8265
G01 X6.5864 Y9.8184
G01 X6.5897 Y9.8147
G01 X6.5973 Y9.8085
G01 X6.6059 Y9.8039
G01 X6.6105 Y9.8023
G01 X6.6201 Y9.8004
G01 X6.6275 Y9.8000
G01 X7.6475 Y9.8000
G01 X7.6549 Y9.8004
G01 X7.6645 Y9.8023
G01 X7.6735 Y9.8060
G01 X7.6777 Y9.8085
G01 X7.6816 Y9.8114
G01 X7.6886 Y9.8184
G01 X7.6940 Y9.8265
G01 X7.6977 Y9.8355
G01 X7.6996 Y9.8451
G01 X7.7000 Y9.8525
G01 X7.7000 Y10.1475
G01 X7.6996 Y10.1549
G01 X7.6989 Y10.1597
G01 X7.6961 Y10.1691
G01 X7.6940 Y10.1735
G01 X7.6886 Y10.1816
G01 X7.6853 Y10.1853
G01 X7.6777 Y10.1915
G01 X7.6691 Y10.1961
G01 X7.6645 Y10.1977
G01 X7.6549 Y10.1996
G01 X7.6475 Y10.2000
G01 X6.6275 Y10.2000
G01 X6.6201 Y10.1996
G01 X6.6153 Y10.1989
G01 X6.6059 Y10.1961
G01 X6.5973 Y10.1915
G01 X6.5897 Y10.1853
G01 X6.5835 Y10.1777
G01 X6.5789 Y10.1691
G01 X6.5761 Y10.1597
G01 X6.5754 Y10.1549
G01 X6.5750 Y10.1475
G00 Z2.0000
G00 X6.5750 Y9.1975
G01 F25.00
G01 Z-0.2000
G01 F120.00
G01 X6.5750 Y8.9025
G01 X6.5754 Y8.8951
G01 X6.5761 Y8.8903
G01 X6.5789 Y8.8809
G01 X6.5810 Y8.8765
G01 X6.5864 Y8.8684
G01 X6.5897 Y8.8647
G01 X6.5973 Y8.8585
G01 X6.6059 Y8.8539
G01 X6.6105 Y8.8523
G01 X6.6201 Y8.8504
G01 X6.6275 Y8.8500
G01 X7.6475 Y8.8500
G01 X7.6549 Y8.8504
G01 X7.6645 Y8.8523
G01 X7.6735 Y8.8560
G01 X7.6777 Y8.8585
G01 X7.6816 Y8.8614
G01 X7.6886 Y8.8684
G01 X7.6940 Y8.8765
G01 X7.6977 Y8.8855
G01 X7.6996 Y8.8951
G01 X7.7000 Y8.9025
G01 X7.7000 Y9.1975
G01 X7.6996 Y9.2049
G01 X7.6989 Y9.2097
G01 X7.6961 Y9.2191
G01 X7.6940 Y9.2235
G01 X7.6886 Y9.2316
G01 X7.6853 Y9.2353
G01 X7.6777 Y9.2415
G01 X7.6691 Y9.2461
G01 X7.6645 Y9.2477
G01 X7.6549 Y9.2496
G01 X7.6475 Y9.2500
G01 X6.6275 Y9.2500
G01 X6.6201 Y9.2496
G01 X6.6153 Y9.2489
G01 X6.6059 Y9.2461
G01 X6.5973 Y9.2415
G01 X6.5897 Y9.2353
G01 X6.5835 Y9.2277
G01 X6.5789 Y9.2191
G01 X6.5761 Y9.2097
G01 X6.5754 Y9.2049
G01 X6.5750 Y9.1975
G00 Z2.0000
G00 X11.2350 Y9.4750
G01 F25.00
G01 Z-0.2000
G01 F120.00
G01 X10.7650 Y9.4750
G01 X10.7601 Y9.4746
G01 X10.7567 Y9.4734
G01 X10.7537 Y9.4713
G01 X10.7516 Y9.4683
G01 X10.7504 Y9.4649
G01 X10.7500 Y9.4600
G01 X10.7500 Y9.2400
G01 X10.7504 Y9.2351
G01 X10.7516 Y9.2317
G01 X10.7537 Y9.2287
G01 X10.7567 Y9.2266
G01 X10.7601 Y9.2254
G01 X10.7650 Y9.2250
G01 X11.2350 Y9.2250
G01 X11.2399 Y9.2254
G01 X11.2433 Y9.2266
G01 X11.2463 Y9.2287
G01 X11.2484 Y9.2317
G01 X11.2496 Y9.2351
G01 X11.2500 Y9.2400
G01 X11.2500 Y9.4600
G01 X11.2493 Y9.4661
G01 X11.2484 Y9.4683
G01 X11.2463 Y9.4713
G01 X11.2433 Y9.4734
G01 X11.2411 Y9.4743
G01 X11.2350 Y9.4750
G00 Z2.0000
G00 X11.2350 Y10.7750
G01 F25.00
G01 Z-0.2000
G01 F120.00
G01 X10.7650 Y10.7750
G01 X10.7601 Y10.7746
G01 X10.7567 Y10.7734
G01 X10.7537 Y10.7713
G01 X10.7516 Y10.7683
G01 X10.7504 Y10.7649
G01 X10.7500 Y10.7600
G01 X10.7500 Y10.5400
G01 X10.7504 Y10.5351
G01 X10.7516 Y10.5317
G01 X10.7537 Y10.5287
G01 X10.7567 Y10.5266
G01 X10.7601 Y10.5254
G01 X10.7650 Y10.5250
G01 X11.2350 Y10.5250
G01 X11.2399 Y10.5254
G01 X11.2433 Y10.5266
G01 X11.2463 Y10.5287
G01 X11.2484 Y10.5317
G01 X11.2496 Y10.5351
G01 X11.2500 Y10.5400
G01 X11.2500 Y10.7600
G01 X11.2493 Y10.7661
G01 X11.2484 Y10.7683
G01 X11.2463 Y10.7713
G01 X11.2433 Y10.7734
G01 X11.2411 Y10.7743
G01 X11.2350 Y10.7750
G00 Z2.0000
G00 X13.2350 Y10.1250
G01 F25.00
G01 Z-0.2000
G01 F120.00
G01 X12.7650 Y10.1250
G01 X12.7601 Y10.1246
G01 X12.7567 Y10.1234
G01 X12.7537 Y10.1213
G01 X12.7516 Y10.1183
G01 X12.7504 Y10.1149
G01 X12.7500 Y10.1100
G01 X12.7500 Y9.8900
G01 X12.7504 Y9.8851
G01 X12.7516 Y9.8817
G01 X12.7537 Y9.8787
G01 X12.7567 Y9.8766
G01 X12.7601 Y9.8754
G01 X12.7650 Y9.8750
G01 X13.2350 Y9.8750
G01 X13.2399 Y9.8754
G01 X13.2433 Y9.8766
G01 X13.2463 Y9.8787
G01 X13.2484 Y9.8817
G01 X13.2496 Y9.8851
G01 X13.2500 Y9.8900
G01 X13.2500 Y10.1100
G01 X13.2493 Y10.1161
G01 X13.2484 Y10.1183
G01 X13.2463 Y10.1213
G01 X13.2433 Y10.1234
G01 X13.2411 Y10.1243
G01 X13.2350 Y10.1250
G00 Z2.0000
G00 X13.3500 Y12.8000
G01 F25.00
G01 Z-0.2000
G01 F120.00
G01 X14.6500 Y12.8000
G01 X14.6500 Y13.2000
G01 X13.3500 Y13.2000
G01 X13.3500 Y12.8000
G00 Z2.0000
G00 X13.3500 Y13.8000
G01 F25.00
G01 Z-0.2000
G01 F120.00
G01 X14.6500 Y13.8000
G01 X14.6500 Y14.2000
G01 X13.3500 Y14.2000
G01 X13.3500 Y13.8000
G00 Z2.0000
G00 X13.3500 Y14.8000
G01 F25.00
G01 Z-0.2000
G01 F120.00
G01 X14.6500 Y14.8000
G01 X14.6500 Y15.2000
G01 X13.3500 Y15.2000
G01 X13.3500 Y14.8000
G00 Z2.0000
G00 X13.3500 Y15.8000
G01 F25.00
G01 Z-0.2000
G01 F120.00
G01 X14.6500 Y15.8000
G01 X14.6500 Y16.2000
G01 X13.3500 Y16.2000
G01 X13.3500 Y15.8000
G00 Z2.0000
G00 X13.3500 Y16.8000
G01 F25.00
G01 Z-0.2000
G01 F120.00
G01 X14.6500 Y16.8000
G01 X14.6500 Y17.2000
G01 X13.3500 Y17.2000
G01 X13.3500 Y16.8000
G00 Z2.0000
G00 X14.4100 Y19.0350
G01 F25.00
G01 Z-0.2000
G01 F120.00
G01 X15.5900 Y19.0350
G01 X15.5900 Y19.9650
G01 X14.4100 Y19.9650
G01 X14.4100 Y19.0350
G00 Z2.0000
G00 X14.4100 Y21.0350
G01 F25.00
G01 Z-0.2000
G01 F120.00
G01 X15.5900 Y21.0350
G01 X15.5900 Y21.9650
G01 X14.4100 Y21.9650
G01 X14.4100 Y21.0350
G00 Z2.0000
G00 X17.4100 Y21.0350
G01 F25.00
G01 Z-0.2000
G01 F120.00
G01 X18.5900 Y21.0350
G01 X18.5900 Y21.9650
G01 X17.4100 Y21.9650
G01 X17.4100 Y21.0350
G00 Z2.0000
G00 X17.4100 Y19.0350
G01 F25.00
G01 Z-0.2000
G01 F120.00
G01 X18.5900 Y19.0350
G01 X18.5900 Y19.9650
G01 X17.4100 Y19.9650
G01 X17.4100 Y19.0350
G00 Z2.0000
G00 X19.3500 Y16.8000
G01 F25.00
G01 Z-0.2000
G01 F120.00
G01 X20.6500 Y16.8000
G01 X20.6500 Y17.2000
G01 X19.3500 Y17.2000
G01 X19.3500 Y16.8000
G00 Z2.0000
G00 X19.3500 Y15.8000
G01 F25.00
G01 Z-0.2000
G01 F120.00
G01 X20.6500 Y15.8000
G01 X20.6500 Y16.2000
G01 X19.3500 Y16.2000
G01 X19.3500 Y15.8000
G00 Z2.0000
G00 X19.3500 Y14.8000
G01 F25.00
G01 Z-0.2000
G01 F120.00
G01 X20.6500 Y14.8000
G01 X20.6500 Y15.2000
G01 X19.3500 Y15.2000
G01 X19.3500 Y14.8000
G00 Z2.0000
G00 X19.3500 Y13.8000
G01 F25.00
G01 Z-0.2000
G01 F120.00
G01 X20.6500 Y13.8000
G01 X20.6500 Y14.2000
G01 X19.3500 Y14.2000
G01 X19.3500 Y13.8000
G00 Z2.0000
G00 X19.3500 Y12.8000
G01 F25.00
G01 Z-0.2000
G01 F120.00
G01 X20.6500 Y12.8000
G01 X20.6500 Y13.2000
G01 X19.3500 Y13.2000
G01 X19.3500 Y12.8000
G00 Z2.0000
G00 X16.0500 Y13.4500
G01 F25.00
G01 Z-0.2000
G01 F120.00
G01 X17.9500 Y13.4500
G01 X17.9500 Y16.5500
G01 X16.0500 Y16.5500
G01 X16.0500 Y13.4500
G00 Z2.0000
G00 X22.5950 Y10.5250
G01 F25.00
G01 Z-0.2000
G01 F120.00
G01 X23.8050 Y10.5250
G01 X23.8050 Y11.6750
G01 X22.5950 Y11.6750
G01 X22.5950 Y10.5250
G00 Z2.0000
G00 X24.5950 Y10.5250
G01 F25.00
G01 Z-0.2000
G01 F120.00
G01 X25.8050 Y10.5250
G01 X25.8050 Y11.6750
G01 X24.5950 Y11.6750
G01 X24.5950 Y10.5250
G00 Z2.0000
G00 X28.0025 Y9.9350
G01 F25.00
G01 Z-0.2000
G01 F120.00
G01 X29.4575 Y9.9350
G01 X29.4791 Y9.9361
G01 X29.4980 Y9.9389
G01 X29.5166 Y9.9435
G01 X29.5346 Y9.9500
G01 X29.5519 Y9.9581
G01 X29.5683 Y9.9680
G01 X29.5836 Y9.9794
G01 X29.5978 Y9.9922
G01 X29.6106 Y10.0064
G01 X29.6220 Y10.0217
G01 X29.6319 Y10.0381
G01 X29.6400 Y10.0554
G01 X29.6465 Y10.0734
G01 X29.6511 Y10.0920
G01 X29.6539 Y10.1109
G01 X29.6549 Y10.1300
G01 X29.6539 Y10.1491
G01 X29.6511 Y10.1680
G01 X29.6465 Y10.1866
G01 X29.6400 Y10.2046
G01 X29.6319 Y10.2219
G01 X29.6220 Y10.2383
G01 X29.6106 Y10.2536
G01 X29.5978 Y10.2678
G01 X29.5836 Y10.2806
G01 X29.5683 Y10.2920
G01 X29.5519 Y10.3019
G01 X29.5346 Y10.3100
G01 X29.5166 Y10.3165
G01 X29.4980 Y10.3211
G01 X29.4791 Y10.3239
G01 X29.4575 Y10.3250
G01 X28.0025 Y10.3250
G01 X27.9809 Y10.3239
G01 X27.9620 Y10.3211
G01 X27.9434 Y10.3165
G01 X27.9254 Y10.3100
G01 X27.9081 Y10.3019
G01 X27.8917 Y10.2920
G01 X27.8764 Y10.2806
G01 X27.8622 Y10.2678
G01 X27.8494 Y10.2536
G01 X27.8380 Y10.2383
G01 X27.8281 Y10.2219
G01 X27.8200 Y10.2046
G01 X27.8135 Y10.1866
G01 X27.8089 Y10.1680
G01 X27.8061 Y10.1491
G01 X27.8051 Y10.1300
G01 X27.8061 Y10.1109
G01 X27.8089 Y10.0920
G01 X27.8135 Y10.0734
G01 X27.8200 Y10.0554
G01 X27.8281 Y10.0381
G01 X27.8380 Y10.0217
G01 X27.8494 Y10.0064
G01 X27.8622 Y9.9922
G01 X27.8764 Y9.9794
G01 X27.8917 Y9.9680
G01 X27.9081 Y9.9581
G01 X27.9254 Y9.9500
G01 X27.9434 Y9.9435
G01 X27.9620 Y9.9389
G01 X27.9809 Y9.9361
G01 X28.0025 Y9.9350
G00 Z2.0000
G00 X28.0025 Y8.6750
G01 F25.00
G01 Z-0.2000
G01 F120.00
G01 X29.4575 Y8.6750
G01 X29.4791 Y8.6761
G01 X29.4980 Y8.6789
G01 X29.5166 Y8.6835
G01 X29.5346 Y8.6900
G01 X29.5519 Y8.6981
G01 X29.5683 Y8.7080
G01 X29.5836 Y8.7194
G01 X29.5978 Y8.7322
G01 X29.6106 Y8.7464
G01 X29.6220 Y8.7617
G01 X29.6319 Y8.7781
G01 X29.6400 Y8.7954
G01 X29.6465 Y8.8134
G01 X29.6511 Y8.8320
G01 X29.6539 Y8.8509
G01 X29.6549 Y8.8700
G01 X29.6539 Y8.8891
G01 X29.6511 Y8.9080
G01 X29.6465 Y8.9266
G01 X29.6400 Y8.9446
G01 X29.6319 Y8.9619
G01 X29.6220 Y8.9783
G01 X29.6106 Y8.9936
G01 X29.5978 Y9.0078
G01 X29.5836 Y9.0206
G01 X29.5683 Y9.0320
G01 X29.5519 Y9.0419
G01 X29.5346 Y9.0500
G01 X29.5166 Y9.0565
G01 X29.4980 Y9.0611
G01 X29.4791 Y9.0639
G01 X29.4575 Y9.0650
G01 X28.0025 Y9.0650
G01 X27.9809 Y9.0639
G01 X27.9620 Y9.0611
G01 X27.9434 Y9.0565
G01 X27.9254 Y9.0500
G01 X27.9081 Y9.0419
G01 X27.8917 Y9.0320
G01 X27.8764 Y9.0206
G01 X27.8622 Y9.0078
G01 X27.8494 Y8.9936
G01 X27.8380 Y8.9783
G01 X27.8281 Y8.9619
G01 X27.8200 Y8.9446
G01 X27.8135 Y8.9266
G01 X27.8089 Y8.9080
G01 X27.8061 Y8.8891
G01 X27.8051 Y8.8700
G01 X27.8061 Y8.8509
G01 X27.8089 Y8.8320
G01 X27.8135 Y8.8134
G01 X27.8200 Y8.7954
G01 X27.8281 Y8.7781
G01 X27.8380 Y8.7617
G01 X27.8494 Y8.7464
G01 X27.8622 Y8.7322
G01 X27.8764 Y8.7194
G01 X27.8917 Y8.7080
G01 X27.9081 Y8.6981
G01 X27.9254 Y8.6900
G01 X27.9434 Y8.6835
G01 X27.9620 Y8.6789
G01 X27.9809 Y8.6761
G01 X28.0025 Y8.6750
G00 Z2.0000
G00 X28.0025 Y7.4050
G01 F25.00
G01 Z-0.2000
G01 F120.00
G01 X29.4575 Y7.4050
G01 X29.4791 Y7.4061
G01 X29.4980 Y7.4089
G01 X29.5166 Y7.4135
G01 X29.5346 Y7.4200
G01 X29.5519 Y7.4281
G01 X29.5683 Y7.4380
G01 X29.5836 Y7.4494
G01 X29.5978 Y7.4622
G01 X29.6106 Y7.4764
G01 X29.6220 Y7.4917
G01 X29.6319 Y7.5081
G01 X29.6400 Y7.5254
G01 X29.6465 Y7.5434
G01 X29.6511 Y7.5620
G01 X29.6539 Y7.5809
G01 X29.6549 Y7.6000
G01 X29.6539 Y7.6191
G01 X29.6511 Y7.6380
G01 X29.6465 Y7.6566
G01 X29.6400 Y7.6746
G01 X29.6319 Y7.6919
G01 X29.6220 Y7.7083
G01 X29.6106 Y7.7236
G01 X29.5978 Y7.7378
G01 X29.5836 Y7.7506
G01 X29.5683 Y7.7620
